img/AO-Item-1.svg

<svg width="43" height="60" viewBox="0 0 43 60" fill="none" xmlns="http://www.w3.org/2000/svg">
<path d="M0 55.2858V12.6967C0 11.9134 0.63686 11.2766 1.42744 11.2766H8.40362C8.41826 5.091 13.4692 0.00344092 19.6475 0.00344092C23.9664 0.00344092 27.341 -0.238126 30.884 3.32682C32.919 5.36917 34.1781 8.18013 34.1854 11.2766H41.1689C41.9522 11.2766 42.5891 11.9134 42.5891 12.6967V55.2858C42.5891 57.8698 40.4735 60 37.8895 60H4.69958C2.11555 60 0 57.8698 0 55.2858ZM33.8341 48.9172H8.76231C6.53696 48.9172 6.53696 53.0092 8.76231 53.0092H33.8341C36.0521 53.0092 36.0521 48.9172 33.8341 48.9172ZM11.2512 11.2766H31.3452C31.3232 6.64289 27.568 2.85101 22.9416 2.85101C19.3693 2.85101 16.5364 2.49964 13.7181 5.33256C12.2028 6.85517 11.2585 8.95608 11.2512 11.2766Z" fill="white"/>
</svg>

<svg xmlns="http://www.w3.org/2000/svg" width="43" height="60" fill="none"><path fill="#fff" d="M0 55.3V12.7c0-.8.64-1.42 1.43-1.42H8.4C8.42 5.08 13.47 0 19.65 0c4.32 0 7.7-.24 11.23 3.33 2.04 2.04 3.3 4.85 3.3 7.95h7c.77 0 1.4.63 1.4 1.42v42.6c0 2.57-2.1 4.7-4.7 4.7H4.7C2.12 60 0 57.87 0 55.3zm33.83-6.38H8.76c-2.22 0-2.22 4.1 0 4.1h25.07c2.22 0 2.22-4.1 0-4.1zM11.25 11.28h20.1c-.03-4.64-3.78-8.43-8.4-8.43-3.58 0-6.4-.35-9.23 2.48-1.52 1.53-2.46 3.63-2.47 5.95z"/></svg>
